app/assets/images/badges/profil-4-plus-plus.svg

<svg width="48" height="48" viewBox="0 0 48 48" fill="none" xmlns="http://www.w3.org/2000/svg">
<path d="M17.2089 10.4C17.4809 10.4 17.7395 10.4827 17.9849 10.648C18.2302 10.808 18.4275 11.0267 18.5769 11.304C18.7262 11.576 18.8009 11.8747 18.8009 12.2C18.8009 12.52 18.7262 12.8187 18.5769 13.096C18.4275 13.3733 18.2302 13.5947 17.9849 13.76C17.7395 13.92 17.4809 14 17.2089 14H15.8169V15.512C15.8169 15.656 15.7742 15.7733 15.6889 15.864C15.6035 15.9547 15.4915 16 15.3529 16C15.2195 16 15.1102 15.9547 15.0249 15.864C14.9395 15.768 14.8969 15.6507 14.8969 15.512V10.888C14.8969 10.7493 14.9422 10.6347 15.0329 10.544C15.1289 10.448 15.2462 10.4 15.3849 10.4H17.2089ZM17.2089 13.088C17.3102 13.088 17.4089 13.0453 17.5049 12.96C17.6062 12.8747 17.6862 12.7653 17.7449 12.632C17.8089 12.4933 17.8409 12.3493 17.8409 12.2C17.8409 12.0507 17.8089 11.9093 17.7449 11.776C17.6862 11.6373 17.6062 11.528 17.5049 11.448C17.4089 11.3627 17.3102 11.32 17.2089 11.32H15.8169V13.088H17.2089ZM21.8612 11.64C22.0212 11.64 22.1545 11.6853 22.2612 11.776C22.3732 11.8667 22.4292 11.9733 22.4292 12.096C22.4292 12.2613 22.3865 12.3867 22.3012 12.472C22.2159 12.552 22.1145 12.592 21.9972 12.592C21.9172 12.592 21.8265 12.5733 21.7252 12.536C21.7092 12.5307 21.6719 12.52 21.6132 12.504C21.5599 12.488 21.5012 12.48 21.4372 12.48C21.2985 12.48 21.1652 12.5227 21.0372 12.608C20.9092 12.6933 20.8025 12.824 20.7172 13C20.6372 13.1707 20.5972 13.376 20.5972 13.616V15.512C20.5972 15.6507 20.5519 15.768 20.4612 15.864C20.3705 15.9547 20.2559 16 20.1172 16C19.9785 16 19.8639 15.9547 19.7732 15.864C19.6825 15.768 19.6372 15.6507 19.6372 15.512V12.208C19.6372 12.0693 19.6825 11.9547 19.7732 11.864C19.8639 11.768 19.9785 11.72 20.1172 11.72C20.2559 11.72 20.3705 11.768 20.4612 11.864C20.5519 11.9547 20.5972 12.0693 20.5972 12.208V12.312C20.7199 12.0933 20.8959 11.928 21.1252 11.816C21.3545 11.6987 21.5999 11.64 21.8612 11.64ZM27.0383 13.864C27.0383 14.2907 26.9423 14.6747 26.7503 15.016C26.5583 15.352 26.2943 15.6133 25.9583 15.8C25.6276 15.9867 25.2623 16.08 24.8623 16.08C24.4569 16.08 24.0889 15.9867 23.7583 15.8C23.4276 15.6133 23.1663 15.352 22.9743 15.016C22.7823 14.6747 22.6863 14.2907 22.6863 13.864C22.6863 13.4373 22.7823 13.056 22.9743 12.72C23.1663 12.3787 23.4276 12.1147 23.7583 11.928C24.0889 11.736 24.4569 11.64 24.8623 11.64C25.2623 11.64 25.6276 11.736 25.9583 11.928C26.2943 12.1147 26.5583 12.3787 26.7503 12.72C26.9423 13.056 27.0383 13.4373 27.0383 13.864ZM26.0783 13.864C26.0783 13.6027 26.0223 13.3707 25.9103 13.168C25.8036 12.96 25.6569 12.8 25.4703 12.688C25.2889 12.576 25.0863 12.52 24.8623 12.52C24.6383 12.52 24.4329 12.576 24.2463 12.688C24.0649 12.8 23.9183 12.96 23.8063 13.168C23.6996 13.3707 23.6463 13.6027 23.6463 13.864C23.6463 14.1253 23.6996 14.3573 23.8063 14.56C23.9183 14.7627 24.0649 14.92 24.2463 15.032C24.4329 15.144 24.6383 15.2 24.8623 15.2C25.0863 15.2 25.2889 15.144 25.4703 15.032C25.6569 14.92 25.8036 14.7627 25.9103 14.56C26.0223 14.3573 26.0783 14.1253 26.0783 13.864ZM29.8963 10.928C29.715 10.928 29.587 10.9813 29.5123 11.088C29.4376 11.1893 29.4003 11.3013 29.4003 11.424V11.8H30.1283C30.2563 11.8 30.363 11.8427 30.4483 11.928C30.5336 12.008 30.5763 12.112 30.5763 12.24C30.5763 12.368 30.5336 12.4747 30.4483 12.56C30.363 12.64 30.2563 12.68 30.1283 12.68H29.4003V15.512C29.4003 15.6507 29.355 15.768 29.2643 15.864C29.1736 15.9547 29.059 16 28.9203 16C28.7816 16 28.667 15.9547 28.5763 15.864C28.4856 15.768 28.4403 15.6507 28.4403 15.512V12.68H28.0083C27.8803 12.68 27.7736 12.64 27.6883 12.56C27.603 12.4747 27.5603 12.368 27.5603 12.24C27.5603 12.112 27.603 12.008 27.6883 11.928C27.7736 11.8427 27.8803 11.8 28.0083 11.8H28.4403V11.432C28.4403 11.032 28.5763 10.7067 28.8483 10.456C29.1256 10.2053 29.523 10.08 30.0403 10.08C30.2376 10.08 30.4083 10.12 30.5523 10.2C30.7016 10.28 30.7763 10.4027 30.7763 10.568C30.7763 10.696 30.739 10.8 30.6643 10.88C30.5896 10.96 30.499 11 30.3923 11C30.3656 11 30.3363 10.9973 30.3043 10.992C30.2776 10.9867 30.2483 10.9813 30.2163 10.976C30.0883 10.944 29.9816 10.928 29.8963 10.928ZM32.0803 15.512C32.0803 15.6507 32.035 15.768 31.9443 15.864C31.8536 15.9547 31.739 16 31.6003 16C31.4616 16 31.347 15.9547 31.2563 15.864C31.1656 15.768 31.1203 15.6507 31.1203 15.512V12.208C31.1203 12.0693 31.1656 11.9547 31.2563 11.864C31.347 11.768 31.4616 11.72 31.6003 11.72C31.739 11.72 31.8536 11.768 31.9443 11.864C32.035 11.9547 32.0803 12.0693 32.0803 12.208V15.512ZM31.5923 11.2C31.411 11.2 31.283 11.1707 31.2083 11.112C31.1336 11.0533 31.0963 10.9493 31.0963 10.8V10.648C31.0963 10.4987 31.1363 10.3947 31.2163 10.336C31.2963 10.2773 31.4243 10.248 31.6003 10.248C31.787 10.248 31.9176 10.2773 31.9923 10.336C32.067 10.3947 32.1043 10.4987 32.1043 10.648V10.8C32.1043 10.9547 32.0643 11.0613 31.9843 11.12C31.9096 11.1733 31.779 11.2 31.5923 11.2ZM34.1069 15.512C34.1069 15.6507 34.0589 15.768 33.9629 15.864C33.8722 15.9547 33.7575 16 33.6189 16C33.4855 16 33.3735 15.9547 33.2829 15.864C33.1922 15.768 33.1469 15.6507 33.1469 15.512V10.568C33.1469 10.4293 33.1922 10.3147 33.2829 10.224C33.3789 10.128 33.4962 10.08 33.6349 10.08C33.7682 10.08 33.8802 10.128 33.9709 10.224C34.0615 10.3147 34.1069 10.4293 34.1069 10.568V15.512Z" fill="#1E416A"/>
<circle cx="24" cy="24" r="22.5" stroke="#1E416A" stroke-width="3"/>
<path d="M20.5779 31.7C20.9139 31.7 21.1939 31.812 21.4179 32.036C21.6419 32.26 21.7539 32.54 21.7539 32.876C21.7539 33.198 21.6419 33.471 21.4179 33.695C21.1939 33.905 20.9139 34.01 20.5779 34.01H19.6959V36.719C19.6959 37.083 19.5699 37.391 19.3179 37.643C19.0799 37.881 18.7789 38 18.4149 38C18.0649 38 17.7709 37.881 17.5329 37.643C17.2949 37.391 17.1759 37.083 17.1759 36.719V34.01H11.7159C11.4079 34.01 11.1209 33.891 10.8549 33.653C10.5889 33.401 10.4559 33.107 10.4559 32.771C10.4559 32.463 10.5609 32.183 10.7709 31.931L17.4069 23.804C17.6729 23.468 18.0229 23.3 18.4569 23.3C18.8069 23.3 19.1009 23.426 19.3389 23.678C19.5769 23.916 19.6959 24.217 19.6959 24.581V31.7H20.5779ZM17.1759 31.7V27.5L13.7739 31.7H17.1759Z" fill="#6E84FE"/>
<path d="M29.423 25.4C29.679 25.4 29.8923 25.4853 30.063 25.656C30.2337 25.816 30.319 26.024 30.319 26.28C30.319 26.536 30.2337 26.7493 30.063 26.92C29.8923 27.08 29.679 27.16 29.423 27.16H27.183V29.256C27.183 29.5547 27.0817 29.8 26.879 29.992C26.687 30.184 26.4417 30.28 26.143 30.28C25.8443 30.28 25.5937 30.184 25.391 29.992C25.199 29.8 25.103 29.5547 25.103 29.256V27.16H22.911C22.655 27.16 22.4417 27.0747 22.271 26.904C22.1003 26.7333 22.015 26.52 22.015 26.264C22.015 26.008 22.1003 25.8 22.271 25.64C22.4417 25.48 22.655 25.4 22.911 25.4H25.103V23.016C25.103 22.7173 25.199 22.472 25.391 22.28C25.5937 22.088 25.8497 21.992 26.159 21.992C26.4577 21.992 26.703 22.088 26.895 22.28C27.087 22.472 27.183 22.7173 27.183 23.016V25.4H29.423Z" fill="#6E84FE"/>
<path d="M38.423 25.4C38.679 25.4 38.8923 25.4853 39.063 25.656C39.2337 25.816 39.319 26.024 39.319 26.28C39.319 26.536 39.2337 26.7493 39.063 26.92C38.8923 27.08 38.679 27.16 38.423 27.16H36.183V29.256C36.183 29.5547 36.0817 29.8 35.879 29.992C35.687 30.184 35.4417 30.28 35.143 30.28C34.8443 30.28 34.5937 30.184 34.391 29.992C34.199 29.8 34.103 29.5547 34.103 29.256V27.16H31.911C31.655 27.16 31.4417 27.0747 31.271 26.904C31.1003 26.7333 31.015 26.52 31.015 26.264C31.015 26.008 31.1003 25.8 31.271 25.64C31.4417 25.48 31.655 25.4 31.911 25.4H34.103V23.016C34.103 22.7173 34.199 22.472 34.391 22.28C34.5937 22.088 34.8497 21.992 35.159 21.992C35.4577 21.992 35.703 22.088 35.895 22.28C36.087 22.472 36.183 22.7173 36.183 23.016V25.4H38.423Z" fill="#6E84FE"/>
</svg>

<svg width="48" height="48" fill="none" xmlns="http://www.w3.org/2000/svg"><path d="M17.209 10.4c.272 0 .53.083.776.248.245.16.442.379.592.656.15.272.224.57.224.896 0 .32-.075.619-.224.896-.15.277-.347.499-.592.664-.245.16-.504.24-.776.24h-1.392v1.512a.493.493 0 01-.128.352.44.44 0 01-.336.136.43.43 0 01-.328-.136.51.51 0 01-.128-.352v-4.624a.479.479 0 01.488-.488h1.824zm0 2.688c.101 0 .2-.043.296-.128a.89.89 0 00.24-.328 1.02 1.02 0 00.096-.432c0-.15-.032-.29-.096-.424a.81.81 0 00-.24-.328.444.444 0 00-.296-.128h-1.392v1.768h1.392zm4.652-1.448c.16 0 .293.045.4.136.112.09.168.197.168.32 0 .165-.042.29-.128.376a.43.43 0 01-.304.12.799.799 0 01-.272-.056 2.884 2.884 0 00-.112-.032.61.61 0 00-.176-.024.711.711 0 00-.4.128.957.957 0 00-.32.392c-.08.17-.12.376-.12.616v1.896a.493.493 0 01-.136.352.466.466 0 01-.344.136.466.466 0 01-.344-.136.493.493 0 01-.136-.352v-3.304c0-.139.046-.253.136-.344a.453.453 0 01.344-.144c.139 0 .253.048.344.144.09.09.136.205.136.344v.104c.123-.219.299-.384.528-.496.23-.117.475-.176.736-.176zm5.177 2.224c0 .427-.096.81-.288 1.152a2.035 2.035 0 01-.792.784 2.19 2.19 0 01-1.096.28c-.405 0-.773-.093-1.104-.28a2.05 2.05 0 01-.784-.784 2.308 2.308 0 01-.288-1.152c0-.427.096-.808.288-1.144.192-.341.454-.605.784-.792.33-.192.699-.288 1.104-.288.4 0 .766.096 1.096.288.336.187.6.45.792.792.192.336.288.717.288 1.144zm-.96 0c0-.261-.056-.493-.168-.696a1.165 1.165 0 00-1.048-.648c-.224 0-.43.056-.616.168a1.239 1.239 0 00-.44.48c-.106.203-.16.435-.16.696 0 .261.054.493.16.696.112.203.259.36.44.472.187.112.392.168.616.168a1.176 1.176 0 001.048-.64c.112-.203.168-.435.168-.696zm3.818-2.936c-.181 0-.309.053-.384.16a.553.553 0 00-.112.336v.376h.728c.128 0 .235.043.32.128.086.08.128.184.128.312a.434.434 0 01-.128.32.45.45 0 01-.32.12H29.4v2.832a.493.493 0 01-.136.352.466.466 0 01-.344.136.466.466 0 01-.344-.136.493.493 0 01-.136-.352V12.68h-.432a.45.45 0 01-.32-.12.434.434 0 01-.128-.32c0-.128.043-.232.128-.312a.434.434 0 01.32-.128h.432v-.368c0-.4.136-.725.408-.976.278-.25.675-.376 1.192-.376.198 0 .368.04.512.12.15.08.224.203.224.368a.439.439 0 01-.112.312.358.358 0 01-.272.12.542.542 0 01-.088-.008 2.807 2.807 0 00-.088-.016 1.367 1.367 0 00-.32-.048zm2.184 4.584a.493.493 0 01-.136.352.466.466 0 01-.344.136.466.466 0 01-.344-.136.493.493 0 01-.136-.352v-3.304c0-.139.046-.253.136-.344a.453.453 0 01.344-.144c.139 0 .254.048.344.144.091.09.136.205.136.344v3.304zm-.488-4.312c-.181 0-.309-.03-.384-.088-.074-.059-.112-.163-.112-.312v-.152c0-.15.04-.253.12-.312.08-.059.208-.088.384-.088.187 0 .318.03.392.088.075.059.112.163.112.312v.152c0 .155-.04.261-.12.32-.074.053-.205.08-.392.08zm2.515 4.312a.479.479 0 01-.488.488.456.456 0 01-.336-.136.493.493 0 01-.136-.352v-4.944a.479.479 0 01.488-.488c.133 0 .245.048.336.144.09.09.136.205.136.344v4.944z" fill="#1E416A"/><circle cx="24" cy="24" r="22.5" stroke="#1E416A" stroke-width="3"/><path d="M20.578 31.7c.336 0 .616.112.84.336.224.224.336.504.336.84 0 .322-.112.595-.336.819a1.18 1.18 0 01-.84.315h-.882v2.709c0 .364-.126.672-.378.924a1.224 1.224 0 01-.903.357c-.35 0-.644-.119-.882-.357a1.296 1.296 0 01-.357-.924V34.01h-5.46c-.308 0-.595-.119-.861-.357-.266-.252-.4-.546-.4-.882 0-.308.106-.588.316-.84l6.636-8.127a1.274 1.274 0 011.05-.504c.35 0 .644.126.882.378.238.238.357.539.357.903V31.7h.882zm-3.402 0v-4.2l-3.402 4.2h3.402zM29.423 25.4c.256 0 .47.085.64.256.17.16.256.368.256.624s-.085.47-.256.64a.9.9 0 01-.64.24h-2.24v2.096a.97.97 0 01-.304.736.997.997 0 01-.736.288c-.299 0-.55-.096-.752-.288a.997.997 0 01-.288-.736V27.16h-2.192a.868.868 0 01-.64-.256.868.868 0 01-.256-.64c0-.256.085-.464.256-.624a.9.9 0 01.64-.24h2.192v-2.384c0-.299.096-.544.288-.736.203-.192.459-.288.768-.288.299 0 .544.096.736.288a.997.997 0 01.288.736V25.4h2.24zM38.423 25.4c.256 0 .47.085.64.256.17.16.256.368.256.624s-.085.47-.256.64a.9.9 0 01-.64.24h-2.24v2.096a.97.97 0 01-.304.736.997.997 0 01-.736.288c-.299 0-.55-.096-.752-.288a.997.997 0 01-.288-.736V27.16h-2.192a.868.868 0 01-.64-.256.868.868 0 01-.256-.64c0-.256.085-.464.256-.624a.9.9 0 01.64-.24h2.192v-2.384c0-.299.096-.544.288-.736.203-.192.459-.288.768-.288.299 0 .544.096.736.288a.997.997 0 01.288.736V25.4h2.24z" fill="#6E84FE"/></svg>
